X:6
T:The Cúil Aodha Jig
C:Peadar Ó Riada
S:Kilkenny Tavern sessions, London
Z:ATB
R:jig
M:6/8
L:1/8
K:D
AdF A3|GBE G3|AdF A3|GAB cde|
AdF A2A|GBE G3|[1 c2c ABc|GEA D2F:|][2 czc AFA|GEA D2A|]
c3 ded|cec A2g|~f3 ged|cec A2g|
f3 ~g3|faf d2e|fzB AGA|GEA D2F:|]
AGG AEE|AGE EDD|AGG c2e|dcA AGE|
[1 AGG AEE|AGE EDD|c2c ABA| GEA DEF:|]
[2 AGG AEE|AGE EDD|czc ABA|GEA D3|]
